X: 3531
T: Big Hungry Cat, The
R: reel
M: 4/4
K: Edorian
|:z|E2DE GABd|g2fd cAGF|E2DE GABd|cAAG EAGF|
E2DE GABd|g2fd cAGF|E2DE GABd|egfd e3:|
|:f|g2ed BABd|f2dB AFDf|g2ed BABd|egfd e3f|
g2ed BABd|f2dB AFDF|E2DE GABd|egfd e3:|

